X: 251	% 67
T: Muddy Road
T: or Forked Deer
N: Handwritten: "Not usual F.D. Starts like Durang's"
S: Viola Ruth "Pioneer Western Folk Tunes" 1948 p.25 #1
R: reel
Z: 2019 John Chambers <jc:trillian.mit.edu>
M: 2/4
L: 1/16
K: A
V: 1 name="67"
[|\
A,ECE A,ECE | A2AA ceee | EBGB EBGB | E2EE G2cB |\
A2cB A2cB |
ABcd e2cd | e2ee e2af | ecBc A4 ||\
a2af e2c2 | ecfc e4 |
ecfc ecfc | ecfc e4 |\
a2af e2c2 | ecfc e2(cd) | e2ee e2(af) | ecBc A4 |]
